docs/.gitbook/assets/icon-pencil-16@light.svg

<svg width="32" height="32" viewBox="0 0 16 16" fill="none" xmlns="http://www.w3.org/2000/svg">
<rect x="0" y="0" width="16" height="16" fill="#fff"/>
<path fill-rule="evenodd" clip-rule="evenodd" d="M13.0139 2.98602C12.3704 2.3425 11.3252 2.34859 10.6892 2.99956L10.3784 3.31768L12.6823 5.62152L13.0004 5.31074C13.6514 4.67476 13.6574 3.62954 13.0139 2.98602ZM11.6092 6.66982L9.33012 4.3907L3.41566 10.4446L2.75749 13.2424L5.55531 12.5843L11.6092 6.66982ZM9.61626 1.95133C10.8359 0.702896 12.8404 0.691216 14.0746 1.92536C15.3087 3.1595 15.297 5.16401 14.0486 6.38369L13.2002 7.21251L6.45428 13.803C6.35664 13.8984 6.2348 13.9654 6.10191 13.9966L1.92176 14.98C1.66894 15.0395 1.40334 14.9639 1.21968 14.7802C1.03603 14.5966 0.960469 14.331 1.01994 14.0782L2.0033 9.89802C2.03456 9.76513 2.1015 9.6433 2.1969 9.54565L8.78743 2.7997L9.61626 1.95133Z" fill="#000"/>
</svg>

<svg xmlns="http://www.w3.org/2000/svg" width="32" height="32" fill="none" viewBox="0 0 16 16"><path fill="#fff" d="M0 0h16v16H0z"/><path fill="#000" fill-rule="evenodd" d="M13.014 2.986A1.634 1.634 0 0 0 10.689 3l-.31.318 2.303 2.304L13 5.31a1.634 1.634 0 0 0 .014-2.325M11.609 6.67 9.33 4.39l-5.914 6.055-.659 2.797 2.798-.658zM9.616 1.95a3.134 3.134 0 1 1 4.433 4.433l-.849.829-6.746 6.59a.75.75 0 0 1-.352.194l-4.18.983a.75.75 0 0 1-.902-.902l.983-4.18a.75.75 0 0 1 .194-.352L8.787 2.8z" clip-rule="evenodd"/></svg>
